public/icons/ico-help-w.svg

<?xml version="1.0" encoding="UTF-8"?>
<svg width="30px" height="30px" viewBox="0 0 30 30" version="1.1" xmlns="http://www.w3.org/2000/svg" xmlns:xlink="http://www.w3.org/1999/xlink">
    <!-- Generator: sketchtool 54.1 (76490) - https://sketchapp.com -->
    <title>E578C25B-499E-4B08-8DA5-CF8DE8928D35</title>
    <desc>Created with sketchtool.</desc>
    <g id="Portail-pro" stroke="none" stroke-width="1" fill="none" fill-rule="evenodd">
        <g id="Passculture-Pro-creer-struct-notif" transform="translate(-870.000000, -11.000000)" fill="#FFFFFF">
            <g id="BLOCKS/header-pro">
                <g id="Group-[36h]" transform="translate(611.000000, 8.000000)">
                    <g id="Group-3-Copy" transform="translate(259.000000, 3.000000)">
                        <g id="ICONS/ico-offres-w">
                            <path d="M15,29.7272727 C6.86635187,29.7272727 0.272727273,23.1336481 0.272727273,15 C0.272727273,6.86635187 6.86635187,0.272727273 15,0.272727273 C23.1336481,0.272727273 29.7272727,6.86635187 29.7272727,15 C29.7272727,23.1336481 23.1336481,29.7272727 15,29.7272727 Z M15,28.0909091 C22.2299095,28.0909091 28.0909091,22.2299095 28.0909091,15 C28.0909091,7.77009055 22.2299095,1.90909091 15,1.90909091 C7.77009055,1.90909091 1.90909091,7.77009055 1.90909091,15 C1.90909091,22.2299095 7.77009055,28.0909091 15,28.0909091 Z M13.6663636,19.0909091 C13.4536353,19.0909091 13.3472727,18.9845465 13.3472727,18.7718182 L13.3472727,17.3972727 C13.3472727,16.6936328 13.5190892,16.1209113 13.8627273,15.6790909 C14.2063654,15.2372705 14.7299965,14.7381846 15.4336364,14.1818182 C15.9081842,13.8054527 16.2845441,13.4822741 16.5627273,13.2122727 C16.8409105,12.9422714 17.07409,12.6190928 17.2622727,12.2427273 C17.4504555,11.8663618 17.5445455,11.424548 17.5445455,10.9172727 C17.5445455,10.0990868 17.2827299,9.44045704 16.7590909,8.94136364 C16.2354519,8.44227023 15.5400043,8.19272727 14.6727273,8.19272727 C13.7890865,8.19272727 13.0813663,8.4463611 12.5495455,8.95363636 C12.0177246,9.46091163 11.7518182,10.1236323 11.7518182,10.9418182 L11.7518182,11.6290909 C11.7518182,11.8254555 11.6454556,11.9236364 11.4327273,11.9236364 L10.3281818,11.8745455 C10.1154535,11.8745455 10.0090909,11.7681829 10.0090909,11.5554545 L10.0090909,10.9418182 C10.0090909,9.64908445 10.4427229,8.60182219 11.31,7.8 C12.1772771,6.99817781 13.3145384,6.59727273 14.7218182,6.59727273 C16.0963705,6.59727273 17.2009049,6.98999607 18.0354545,7.77545455 C18.8700042,8.56091302 19.2872727,9.60817527 19.2872727,10.9172727 C19.2872727,11.6372763 19.1686376,12.2590883 18.9313636,12.7827273 C18.6940897,13.3063663 18.4118198,13.7318165 18.0845455,14.0590909 C17.7572711,14.3863653 17.3236391,14.7627251 16.7836364,15.1881818 C16.2272699,15.6136385 15.8100014,15.9899984 15.5318182,16.3172727 C15.253635,16.6445471 15.1145455,17.0372704 15.1145455,17.4954545 L15.1145455,18.7718182 C15.1145455,18.9845465 15.0081829,19.0909091 14.7954545,19.0909091 L13.6663636,19.0909091 Z M14.2472727,23.9509091 C13.8381798,23.9509091 13.4945468,23.8159104 13.2163636,23.5459091 C12.9381804,23.2759077 12.7990909,22.9445474 12.7990909,22.5518182 C12.7990909,22.1754527 12.9422713,21.8481832 13.2286364,21.57 C13.5150014,21.2918168 13.8545435,21.1527273 14.2472727,21.1527273 C14.640002,21.1527273 14.9836349,21.2918168 15.2781818,21.57 C15.5727287,21.8481832 15.72,22.1754527 15.72,22.5518182 C15.72,22.9445474 15.5727287,23.2759077 15.2781818,23.5459091 C14.9836349,23.8159104 14.640002,23.9509091 14.2472727,23.9509091 Z" id="Combined-Shape"></path>
                        </g>
                    </g>
                </g>
            </g>
        </g>
    </g>
</svg>

<svg width="30" height="30" viewBox="0 0 30 30" xmlns="http://www.w3.org/2000/svg"><path d="M15 29.727C6.866 29.727.273 23.134.273 15S6.866.273 15 .273 29.727 6.866 29.727 15 23.134 29.727 15 29.727zm0-1.636c7.23 0 13.09-5.861 13.09-13.091 0-7.23-5.86-13.09-13.09-13.09C7.77 1.91 1.91 7.77 1.91 15c0 7.23 5.86 13.09 13.09 13.09zm-1.334-9c-.212 0-.319-.106-.319-.32v-1.374c0-.703.172-1.276.516-1.718.343-.442.867-.94 1.57-1.497.475-.377.852-.7 1.13-.97.278-.27.511-.593.7-.97.187-.376.282-.817.282-1.325 0-.818-.262-1.477-.786-1.976-.524-.499-1.219-.748-2.086-.748-.884 0-1.592.253-2.123.76-.532.508-.798 1.17-.798 1.989v.687c0 .196-.107.295-.32.295l-1.104-.05c-.213 0-.319-.106-.319-.319v-.613c0-1.293.434-2.34 1.301-3.142s2.005-1.203 3.412-1.203c1.374 0 2.479.393 3.313 1.178.835.786 1.252 1.833 1.252 3.142 0 .72-.118 1.342-.356 1.866-.237.523-.52.949-.846 1.276-.328.327-.761.704-1.301 1.13-.557.425-.974.801-1.252 1.128a1.76 1.76 0 00-.417 1.178v1.277c0 .213-.107.319-.32.319h-1.129zm.581 4.86a1.42 1.42 0 01-1.03-.405 1.331 1.331 0 01-.418-.994c0-.377.143-.704.43-.982a1.412 1.412 0 011.018-.417c.393 0 .737.139 1.031.417.295.278.442.605.442.982 0 .393-.147.724-.442.994-.294.27-.638.405-1.03.405z" fill="#FFF"/></svg>
